X:107
T:Heave Away, Boys, Heave Away (a)
M:C|
L:1/8
Q:1/4=100
K:G
Bc|\
d2cB c2BA|G2A2 BBDD|A2 A4 BG|A6 ec|
d2cB c2BA|G2A2 BBDD|G2 G4 AF|G6  ||
